assets/fc/fc-workflow.svg

<svg xmlns="http://www.w3.org/2000/svg" width="100%" height="100%" viewBox="0 0 48 48"><path fill="#00BCD4" d="M7 31h10v10H7zM35.3 19.3l-5.6-5.6c-.4-.4-.4-1 0-1.4l5.6-5.6c.4-.4 1-.4 1.4 0l5.6 5.6c.4.4.4 1 0 1.4l-5.6 5.6c-.4.4-1 .4-1.4 0z"/><circle cx="12" cy="13" r="6" fill="#3F51B5"/><circle cx="36" cy="36" r="6" fill="#448AFF"/><g fill="#90A4AE"><path d="M11 24h2v5h-2z"/><path d="M12 21l-3 4h6z"/></g><g fill="#90A4AE"><path d="M20 12h5v2h-5z"/><path d="M28 13l-4-3v6z"/></g><g fill="#90A4AE"><path d="M35 21h2v5h-2z"/><path d="M36 29l3-4h-6z"/></g></svg>

<svg xmlns="http://www.w3.org/2000/svg" width="100%" height="100%" viewBox="0 0 48 48"><path fill="#00BCD4" d="M7 31H17V41H7zM35.3 19.3l-5.6-5.6c-.4-.4-.4-1 0-1.4l5.6-5.6c.4-.4 1-.4 1.4 0l5.6 5.6c.4.4.4 1 0 1.4l-5.6 5.6C36.3 19.7 35.7 19.7 35.3 19.3z"/><circle cx="12" cy="13" r="6" fill="#3F51B5"/><circle cx="36" cy="36" r="6" fill="#448AFF"/><g fill="#90A4AE"><path d="M11 24H13V29H11z"/><path d="M12 21L9 25 15 25z"/></g><g fill="#90A4AE"><path d="M20 12H25V14H20z"/><path d="M28 13L24 10 24 16z"/></g><g fill="#90A4AE"><path d="M35 21H37V26H35z"/><path d="M36 29L39 25 33 25z"/></g></svg>
